/* XPM */
static char *duck_e_2[] = {
/* columns rows colors chars-per-pixel */
"30 30 203 2",
"   c black",
".  c #1B0716",
"X  c #1D0A18",
"o  c #200000",
"O  c #23101E",
"+  c #321E28",
"@  c #34222E",
"#  c #39262E",
"$  c #362632",
"%  c #372833",
"&  c #382734",
"*  c #3B2A35",
"=  c #3E2E3A",
"-  c #3E313E",
";  c #472F2F",
":  c #412D34",
">  c #432F38",
",  c #4D312F",
"<  c #443034",
"1  c #42323D",
"2  c #4B3333",
"3  c #4A363A",
"4  c #4C393D",
"5  c #50322F",
"6  c #563A2F",
"7  c #5C372A",
"8  c #5E392D",
"9  c #5C3B35",
"0  c #5A3D39",
"q  c #643E2E",
"w  c #6C3C25",
"e  c #683C2E",
"r  c #703F29",
"t  c #453642",
"y  c #473A46",
"u  c #4A3B45",
"i  c #4B3E48",
"p  c #5F402E",
"a  c #594030",
"s  c #5D433A",
"d  c #67452D",
"f  c #65492E",
"g  c #6B402D",
"h  c #674234",
"j  c #664A30",
"k  c #6A4230",
"l  c #6D4D35",
"z  c #6C483E",
"x  c #6B5139",
"c  c #704B27",
"v  c #734C2D",
"b  c #7A4C2B",
"n  c #744531",
"m  c #774A36",
"M  c #74542A",
"N  c #7D552C",
"B  c #79582B",
"V  c #725436",
"C  c #785B37",
"Z  c #7E6133",
"A  c #7C603B",
"S  c #4C414D",
"D  c #544245",
"F  c #52444D",
"G  c #57484F",
"H  c #594241",
"J  c #584449",
"K  c #58484E",
"L  c #534651",
"P  c #564953",
"I  c #554F5B",
"U  c #5A4D55",
"Y  c #5C4F59",
"T  c #5D525C",
"R  c #5B5460",
"E  c #6C4F49",
"W  c #6A5443",
"Q  c #6B504A",
"!  c #615257",
"~  c #62565E",
"^  c #65585E",
"/  c #68585A",
"(  c #745A41",
")  c #655A62",
"_  c #665F6B",
"`  c #6A5E65",
"'  c #7C6341",
"]  c #6D626B",
"[  c #6D6A7E",
"{  c #70656C",
"}  c #736A72",
"|  c #786D74",
" . c #7F757A",
".. c #804F2A",
"X. c #85542A",
"o. c #855B27",
"O. c #8A522B",
"+. c #8A5C2A",
"@. c #85543B",
"#. c #845E32",
"$. c #8A5031",
"%. c #945727",
"&. c #93552C",
"*. c #9D5A2C",
"=. c #965630",
"-. c #856430",
";. c #866839",
":. c #886732",
">. c #8E6C32",
",. c #91642D",
"<. c #94692D",
"1. c #9E6D2B",
"2. c #916E32",
"3. c #917034",
"4. c #9A7733",
"5. c #9B7830",
"6. c #A15F27",
"7. c #A65E31",
"8. c #A26227",
"9. c #A26129",
"0. c #A06826",
"q. c #A16B2B",
"w. c #AB602F",
"e. c #AC6B26",
"r. c #AD6A2A",
"t. c #A86235",
"y. c #A4722F",
"u. c #A37C2E",
"i. c #AD7126",
"p. c #AD7C2D",
"a. c #B2632B",
"s. c #BB682E",
"d. c #BB6A36",
"f. c #B57627",
"g. c #BE7F26",
"h. c #BA7C29",
"j. c #8D6F50",
"k. c #93664D",
"l. c #81767C",
"z. c #82787E",
"x. c #AE734C",
"c. c #C06A2D",
"v. c #CB7230",
"b. c #D87935",
"n. c #867C82",
"m. c #A68236",
"M. c #A88432",
"N. c #B68F2F",
"B. c #BB862B",
"V. c #BF8A2E",
"C. c #B68F32",
"Z. c #B08B39",
"A. c #B69031",
"S. c #BA9233",
"D. c #C28529",
"F. c #C58F2C",
"G. c #CC8C2B",
"H. c #C7902C",
"J. c #C59B2F",
"K. c #CC9129",
"L. c #CE992C",
"P. c #C69830",
"I. c #C89F31",
"U. c #D29727",
"Y. c #D3952A",
"T. c #D09A2C",
"R. c #D99C29",
"E. c #CCA234",
"W. c #DBA22A",
"Q. c #DDA92E",
"!. c #D4AA36",
"~. c #DCAC31",
"^. c #E1A72B",
"/. c #E4AC2C",
"(. c #E6A231",
"). c #E0AE33",
"_. c #E5B32E",
"`. c #E7B82D",
"'. c #E8B72E",
"]. c #EBBD2F",
"[. c #E6B331",
"{. c #E6BA37",
"}. c #EBBD31",
"|. c #EEC133",
" X c #F0C335",
".X c #8B838B",
"XX c #92898D",
"oX c #9E979E",
"OX c #A0979B",
"+X c #A49C9F",
"@X c #A59DA1",
"#X c #B7B0B3",
"$X c #B8B2B3",
"%X c #B9BCBF",
"&X c #BAFFFF",
"*X c #C5BFC3",
"=X c #C6C1C2",
"-X c #DDD8D8",
";X c #DDE1DE",
":X c #EDEEEC",
">X c #F4F4F5",
",X c #FEFEFE",
"<X c None",
/* pixels */
"<X<X<X<X<X<X<X<X<X<X<X<X<X<X<X<X<X<X<X<X<X<X<X<X<X<X<X<X<X<X",
"<X<X<X<X<X<X<X<X<X<X<X<X<X<X<X<X<X<X<X<X<X<X<X<X<X<X<X<X<X<X",
"<X<X<X<X<X<X<X<X<X<X<X<X<X<X<X<X<X<X<X<X<X<X<X<X<X<X<X<X<X<X",
"<X<X<X<X<X<X<X<X<X<X<X<X<X<X<X<X<X<X<X<X<X<X<X<X<X<X<X<X<X<X",
"<X<X<X<X<X<X<X<X<X<X<X<X<X<X} T T ) R S I <X<X<X<X<X<X<X<X<X",
"<X<X<X<X<X<X<X<X<X<X<X<Xn.| U 1 < 1 < : u } } <X<X<X<X<X<X<X",
"<X<X<X<X<X<X<X<X<X<XoX.X^ 1 C C.A.A.A.S.;.< P z.n.<X<X<X<X<X",
"<X<X<X<X<X<X<X<X$X$X] 1 x M.I.|.|.|.|.|.!.Z.A - S =X-X<X<X<X",
"<X<X<X<X<X<X<X<X~ i W 5.N.}.|.|.|.|.|.|.S.;.a @ 1 1 S <X<X<X",
"<X<X<X<X<X<X<X<XF $ f {. X XE.2.3.>.>.3.' t i i 1 $ - <X<X<X",
"<X<X<X<X<X<X<X<XU * j {.!.5.>.-.-.:.h @ y <X<X,Xy * i <X<X<X",
"<X<X<X<X<X<X<X<Xi $ j ).J.M u.}.|.|.A.M ( Q k.x.@.n z u U <X",
"<X<X<X<X<X<X<X<X1 % h D.U._.'.].].].`.}.p.w *.v.s.w.m 1 F <X",
"<X<X<X<X<X<X<X<XP - 0 O.0.K.W._.'.].].].L.e.*.O.n < J { ` <X",
"<X<X<X<X<X<X<X<X{ ) U : 8 e.g.Y.W.'._.Q.L.V.-.: P ] ] <X<X<X",
"<X<X<X<X<X<X<X<X] ] / 2 c K.Y.R.R.R.B.9.b < D T ] <X<X<X<X<X",
"<X<X<X<X} T T &X! 3 l V.L.`.`.`.].].Q.K.,.2 D P ] <X<X<X<X<X",
"<X<Xl.] ^ 4 u ) j.y.B._.`.].].].].].`.}.~.E.>.: K | l.<X<X<X",
"<X<X) t s S.m.2 V ~._.].|.}._.R./.}.].].]. XB.O.h 1 ~ <X<X<X",
"<X<X~ - 6 H.T.S.J.].].].Q.h.H._.'.].].|.].}.F.9.g $ F <X<X<X",
"<X<X) u H d o.W./.^.F.B v 7 1.].].}.].}.}.}.F.6.k * i <X<X<X",
"<X<X<X<XY * : N N N N +.<.5.S.].].].].].'.^.q.q 0 u F <X<X<X",
"<X<X<X<X) t t & ; e b h.K.].|.].|.].'./.B.+.l t S <X<X<X<X<X",
"<X<X<X<X<X<XY * 5 O.%.8.f./._././.(.F.i.b @ u <X<X<X<X<X<X<X",
"<X<X<X<X<X<X) * 2 &.&.b X.1.q.q.r.c.a.6.r @ y <X<X<X<X<X<X<X",
"<X<X<X<X<X<X~ = 9 t.$.# * - * * 8 r =.b.7.e E ] | %X<X<X<X<X",
"<X<X<X<X<X<X .) G * # @ - ] I T > @ 8 =.7.d.@.t F >X<X<X<X<X",
"<X<X<X<X<X<X<X<XT L - $ U :X<X<Xt & > > > 2 i Y ` ,X<X<X<X<X",
"<X<X<X<X<X<X<X<X<X<X<X<X<X<X<X<Xy y L i i i Y <X<X<X<X<X<X<X",
"<X<X<X<X<X<X<X<X<X<X<X<X<X<X<X<X<X<X<X<X<X<X<X<X<X<X<X<X<X<X"
};
