/* XPM */
static char *duck_e_1[] = {
/* columns rows colors chars-per-pixel */
"30 30 187 2",
"   c #000000",
".  c #39252E",
"X  c #3E282F",
"o  c #362733",
"O  c #352C3B",
"+  c #3B2A35",
"@  c #3D2E3A",
"#  c #3D313D",
"$  c #3F3240",
"%  c #422B2E",
"&  c #482F29",
"*  c #422D33",
"=  c #412F39",
"-  c #4E332D",
";  c #453134",
":  c #42323B",
">  c #4C3434",
",  c #4A343A",
"<  c #4C3A3D",
"1  c #50372F",
"2  c #5B352B",
"3  c #553C34",
"4  c #533D39",
"5  c #5D3830",
"6  c #5B3D39",
"7  c #6C3F2D",
"8  c #443641",
"9  c #453945",
"0  c #453A49",
"q  c #4A3C45",
"w  c #4B3E49",
"e  c #523E43",
"r  c #634129",
"t  c #6C422B",
"y  c #624338",
"u  c #664831",
"i  c #6F4F37",
"p  c #6E5238",
"a  c #71432C",
"s  c #794529",
"d  c #7A4C2B",
"f  c #724330",
"g  c #714839",
"h  c #7B4931",
"j  c #7C542D",
"k  c #7E5B2D",
"l  c #775731",
"z  c #705538",
"x  c #755834",
"c  c #7B5634",
"v  c #7F5539",
"b  c #7F5830",
"n  c #7E593F",
"m  c #4D424C",
"M  c #4D4350",
"N  c #514247",
"B  c #51454E",
"V  c #54484E",
"C  c #5A474B",
"Z  c #524651",
"A  c #554B54",
"S  c #5A4E56",
"D  c #57505C",
"F  c #5E5156",
"G  c #5C525C",
"H  c #5F5959",
"J  c #66514D",
"K  c #6C524C",
"L  c #605357",
"P  c #61565E",
"I  c #64595F",
"U  c #645C63",
"Y  c #675F68",
"T  c #696066",
"R  c #6B6269",
"E  c #736C72",
"W  c #796F75",
"Q  c #767077",
"!  c #75727B",
"~  c #797176",
"^  c #7C757A",
"/  c #7E787D",
"(  c #7D7D84",
")  c #87562F",
"_  c #815F2D",
"`  c #8C532D",
"'  c #8B5F2C",
"]  c #845031",
"[  c #865E31",
"{  c #94552D",
"}  c #935632",
"|  c #9A5D37",
" . c #85622F",
".. c #88652D",
"X. c #836230",
"o. c #8E6D34",
"O. c #8C6D39",
"+. c #92642B",
"@. c #906C2D",
"#. c #9B6229",
"$. c #9D6B2C",
"%. c #967332",
"&. c #99773A",
"*. c #9E7934",
"=. c #997838",
"-. c #A26F2A",
";. c #AA622D",
":. c #A36E3B",
">. c #AB6233",
",. c #A2722C",
"<. c #A27E33",
"1. c #A17E38",
"2. c #A87932",
"3. c #B56630",
"4. c #B16838",
"5. c #B3792D",
"6. c #B87429",
"7. c #BD7D2B",
"8. c #BF7237",
"9. c #BF7D37",
"0. c #81777D",
"q. c #83787B",
"w. c #C46F32",
"e. c #CC7232",
"r. c #857D82",
"t. c #AC8434",
"y. c #AF8931",
"u. c #B5832E",
"i. c #B38C2F",
"p. c #BD872D",
"a. c #B38632",
"s. c #B18B32",
"d. c #B98E30",
"f. c #BA9335",
"g. c #C4812B",
"h. c #C38C2C",
"j. c #CA872B",
"k. c #C98D2B",
"l. c #CD942B",
"z. c #CD992F",
"x. c #C59731",
"c. c #C49A32",
"v. c #C89F35",
"b. c #D3972A",
"n. c #D69927",
"m. c #D59D2C",
"M. c #D99D29",
"N. c #D4A02F",
"B. c #DBA22B",
"V. c #DFAD2E",
"C. c #D1A232",
"Z. c #DBAD31",
"A. c #DDB133",
"S. c #E1AB2D",
"D. c #E0AE31",
"F. c #E5B32D",
"G. c #E7B82C",
"H. c #EBBD2F",
"J. c #E4B532",
"K. c #E5B833",
"L. c #EBBC31",
"P. c #EDC02F",
"I. c #EEC231",
"U. c #F0C332",
"Y. c #868185",
"T. c #8A8286",
"R. c #8C868A",
"E. c #8E8C8F",
"W. c #908A8D",
"Q. c #938E91",
"!. c #969194",
"~. c #9E9798",
"^. c #9D9A9B",
"/. c #A09B9D",
"(. c #A69FA2",
"). c #A5A2A3",
"_. c #A6ACAF",
"`. c #A8A4A4",
"'. c #ACAAAB",
"]. c #B1AEB0",
"[. c #B4B1B4",
"{. c #C4BFBE",
"}. c #C9D5DC",
"|. c #DCE1DF",
" X c #DBE6E6",
".X c gray100",
"XX c None",
/* pixels */
"XXXXXXXXXXXXXXXXXXXXXXXXXXXXXXXXXXXXXXXXXXXXXXXXXXXXXXXXXXXX",
"XXXXXXXXXXXXXXXXXXXXXXXXXXXXXXXXXXXXXXXXXXXXXXXXXXXXXXXXXXXX",
"XXXXXXXXXXXXXXXXXXXXXXXXG A Z M 0 0 M G XXXXXXXXXXXXXXXXXXXX",
"XXXXXXXXXXXXXXXXXXXXE.Q U ; + + X + : R Q _.XXXXXXXXXXXXXXXX",
"XXXXXXXXXXXXXXXX).Q T : 4 <.i.y.y.s.t.q q E ~.{.XXXXXXXXXXXX",
"XXXXXXXXXXXXXX.XE 9 ; =.i.K.I.I.I.I.A.s.=., 9 Q .XXXXXXXXXXX",
"XXXXXXXXXXXXA # < O.t.A.I.I.I.I.P.I.A.o.x . o # # S XXXXXXXX",
"XXXXXXXXXXXXm + % v.U.I.K.*.%.%.%.%.O.< $ : : o + P XXXXXXXX",
"XXXXXXXXXXXXm + & v.L.y.*. .k X.x X O ! ( H B o @ R.XXXXXXXX",
"XXXXXXXXXXXX9 @ ; c.Z... .Z.P.I.Z.k z J K n v t g C S W.XXXX",
"XXXXXXXXXXXXq + % 5.b.F.P.P.P.P.P.H.C.t d w.e.3.| < V E.XXXX",
"XXXXXXXXXXXXB : , ] +.m.V.F.G.H.P.P.F.6.;.{ ) - e W W !.XXXX",
"XXXXXXXXXXXXS A L : > ) #.k.n.F.F.G.S.k.2.> q I Z .XXXXXXXXX",
"XXXXXXXXXXXXXXXX( A V 3 r p.n.n.M.M.h.5 3 L P ^ XXXXXXXXXXXX",
"XXXX.XY G E XXG P < 1 i.N.F.H.H.K.L.S.h.-.* @ G XXXXXXXXXXXX",
"[.E q.N ; S W q > t.x.l.b.H.H.H.P.P.L.H.z.& = U P ^ XXXXXXXX",
"(.q : =.f.z > *.i.l.b.V.F.G.G.B.B.L.P.I.J.c.<.; : U XXXXXXXX",
"/.= . s.L.c.t.X.k x.V.G.P.P.V.j j J.P.L.I.P.v.X + m XXXXXXXX",
"/.: . ,.M.F.J.u X u.B.H.P.L.Z.1 1 Z.L.I.H.P.c.X + w XXXXXXXX",
"`.8 = i ) h.B.,. .d j  .........$.J.P.H.H.S.i.% + m XXXXXXXX",
"XXXX Xw : c +.k.b.+.b k ] X.@.m.S.H.J.m.k.' b , : A XXXXXXXX",
"XXXXXXXXY.9 ; [ $.5.7.e.j.S.F.F.S.b.p.` d 2 6 q A r.XXXXXXXX",
"XXXXXXXXXXXXE @ X { ;.{ ` -.-.-.$.d a 5 7 >.} % q 0.XXXXXXXX",
"XXXXXXXXE m q y 7 w.e.2 * @ + = * : > h ` >.} * q Y.XXXXXXXX",
"XXXXXXXXE 8 ; :.9.w.4.> + S D D D U S * + X ; U U E.XXXXXXXX",
"XXXXXXXXE m I e > , , @ : G XXXXXXXXG # O O 9  XXXXXXXXXXXXX",
"XXXXXXXXXXXX}.M Z A Z A S U XXXXXXXXXXXXXXXXXXXXXXXXXXXXXXXX",
"XXXXXXXXXXXXXXXXXXXXXXXXXXXXXXXXXXXXXXXXXXXXXXXXXXXXXXXXXXXX",
"XXXXXXXXXXXXXXXXXXXXXXXXXXXXXXXXXXXXXXXXXXXXXXXXXXXXXXXXXXXX",
"XXXXXXXXXXXXXXXXXXXXXXXXXXXXXXXXXXXXXXXXXXXXXXXXXXXXXXXXXXXX"
};
