/* XPM */
static char *duck_w_2[] = {
/* columns rows colors chars-per-pixel */
"30 30 190 2",
"   c black",
".  c #080007",
"X  c #160713",
"o  c #180612",
"O  c #1F0E18",
"+  c #230D13",
"@  c #23121A",
"#  c #34252E",
"$  c #3C2A2E",
"%  c #332630",
"&  c #362832",
"*  c #3B2C34",
"=  c #3E313A",
"-  c #452E2D",
";  c #402C30",
":  c #47322E",
">  c #4E322C",
",  c #423134",
"<  c #42343C",
"1  c #45393F",
"2  c #4C3534",
"3  c #4C3937",
"4  c #4C3C3D",
"5  c #56372C",
"6  c #54392D",
"7  c #5A3C2C",
"8  c #523731",
"9  c #533A33",
"0  c #563E3B",
"q  c #5B3B30",
"w  c #423640",
"e  c #463A42",
"r  c #4A3D44",
"t  c #5D412C",
"y  c #54413B",
"u  c #5E4532",
"i  c #5C433E",
"p  c #63462D",
"a  c #664B2D",
"s  c #6B4D2D",
"d  c #624431",
"f  c #624830",
"g  c #634C3C",
"h  c #6A4332",
"j  c #6B4739",
"k  c #6D4D32",
"l  c #754929",
"z  c #7E4C27",
"x  c #7E4D2C",
"c  c #704730",
"v  c #724A30",
"b  c #76582F",
"n  c #7D532D",
"m  c #7F582C",
"M  c #73593C",
"N  c #7D5D30",
"B  c #7E6036",
"V  c #4D4046",
"C  c #4C4249",
"Z  c #524345",
"A  c #52454A",
"S  c #54494E",
"D  c #5A4E4F",
"F  c #564B50",
"G  c #594E53",
"H  c #5C5156",
"J  c #5C5158",
"K  c #484961",
"L  c #6D5640",
"P  c #615659",
"I  c #665852",
"U  c #655A5E",
"Y  c #6D5951",
"T  c #685E5F",
"R  c #775543",
"E  c #655C60",
"W  c #685E61",
"Q  c #7D6045",
"!  c #6D6466",
"~  c #6D656A",
"^  c #696E7A",
"/  c #736A6C",
"(  c #756E70",
")  c #7B7374",
"_  c #7F7878",
"`  c #415E84",
"'  c #804D2E",
"]  c #84532B",
"[  c #845A2A",
"{  c #8B542B",
"}  c #8C5D2A",
"|  c #8F5935",
" . c #93572B",
".. c #945A27",
"X. c #945A29",
"o. c #9F5E2A",
"O. c #9B5E33",
"+. c #89642E",
"@. c #816230",
"#. c #80643A",
"$. c #886631",
"%. c #886638",
"&. c #8B6B34",
"*. c #9C6027",
"=. c #9A6A2B",
"-. c #9F712D",
";. c #937132",
":. c #A1672B",
">. c #A5692A",
",. c #AE6836",
"<. c #A7752C",
"1. c #AD7427",
"2. c #AA732B",
"3. c #AC7A2C",
"4. c #B56B32",
"5. c #B96E34",
"6. c #B37C2B",
"7. c #BA7F2B",
"8. c #BC7034",
"9. c #986B4B",
"0. c #857D7D",
"q. c #C77D2E",
"w. c #C07137",
"e. c #C57830",
"r. c #A9822D",
"t. c #A68133",
"y. c #AB8533",
"u. c #AF8932",
"i. c #BD852B",
"p. c #BD8C2E",
"a. c #B18B32",
"s. c #B98F30",
"d. c #BF902D",
"f. c #B89032",
"g. c #87807F",
"h. c #C4872D",
"j. c #C48A2C",
"k. c #C98E2B",
"l. c #C7912D",
"z. c #CD922C",
"x. c #CC982D",
"c. c #C29330",
"v. c #C59B33",
"b. c #CE9A31",
"n. c #D1952C",
"m. c #D39C2E",
"M. c #D09530",
"N. c #CFA533",
"B. c #D6A22D",
"V. c #D9A32C",
"C. c #DCAA2F",
"Z. c #D2A332",
"A. c #D0A638",
"S. c #D6AB33",
"D. c #DDAB31",
"F. c #DEB134",
"G. c #E2AF2E",
"H. c #E0AC32",
"J. c #E3B42F",
"K. c #E3B431",
"L. c #E6B932",
"P. c #E8BB33",
"I. c #868485",
"U. c #8C8483",
"Y. c #8F8888",
"T. c #938C8B",
"R. c #9B9493",
"E. c #999996",
"W. c #9F9E9B",
"Q. c #959EA3",
"!. c #A39C99",
"~. c #A6A29F",
"^. c #ADA6A3",
"/. c #ACACA5",
"(. c #ADB3AA",
"). c #ADB1B0",
"_. c #B7B1AC",
"`. c #BCB7B2",
"'. c #BBBAB3",
"]. c #91A4C3",
"[. c #BFC1B8",
"{. c #C6CABE",
"}. c #CBCDC1",
"|. c #D5D3CC",
" X c #DBDBD2",
".X c #C9D1E1",
"XX c #E9ECE3",
"oX c #F5F5F4",
"OX c #FFFFFE",
"+X c None",
/* pixels */
"+X+X+X+X+X+X+X+X+X+X+X+X+X+X+X+X+X+X+X+X+X+X+X+X+X+X+X+X+X+X",
"+X+X+X+X+X+X+X+X+X+X+X+X+X+X+X+X+X+X+X+X+X+X+X+X+X+X+X+X+X+X",
"+X+X+X+X+X+X+X+X+X+X+X+X+X+X+X+X+X+X+X+X+X+X+X+X+X+X+X+X+X+X",
"+X+X+X+X+X+X+X+X+X+X+XOX[.'./.E.E.W.+X+X+X+X+X+X+X+X+X+X+X+X",
"+X+X+X+X+X+X+X+X+X+X+XU 1 < , = = e |.OX+X+X+X+X+X+X+X+X+X+X",
"+X+X+X+X+X+X+X+X+X~ w Z &.;.;.;.;.%.C H OX+X+X+X+X+X+X+X+X+X",
"+X+X+X+X+X+X+X!.r 4 B ;.D.P.L.L.P.v.$.M r J +X+X+X+X+X+X+X+X",
"+X+X+X+X+XT.C 1 * $ %.y.F.P.P.P.P.L.P.a.b L r H +X+X+X+X+X+X",
"+X+X+X+X+X0.1 & < * * y t.a.a.a.u.v.P.L.L.%.# r +X+X+X+X+X+X",
"+X+X+X+X+XI.1 * r ` ^ S * ; u f d N f.A.L.$.# e +X+X+X+X+X+X",
"+X+X+X`.A A 0 8 R 9.Y I 9 s A.F.F.y.7 ;.K.$.% r +X+X+X+X+X+X",
"+X+X+X(.1 , | 4.w.8.c k v.S.L.L.L.K.A.b.b.N # e +X+X+X+X+X+X",
"+X+X+X{.e A y 5  .o.X.:.D.L.L.J.J.H.m.i.>.v * r +X+X+X+X+X+X",
"+X+X+X+X+X+XC Z 0 5 3.z.F.K.J.F.n.j.1.] 2 0 1 V +X+X+X+X+X+X",
"+X+X+X+X+X+X+XQ.w r d s =.1.z.x.z.k.h.m # 1 XX|.+X+X+X+X+X+X",
"+X+X+X+X+X+X+X+X+XU & - 2.i.B.C.D.H.D.p.=.v 1 G +X+XOXOX+X+X",
"+X+X+X+X+X+X+X0.1 3 &.t.Z.G.L.L.L.P.L.K.D.3.n Q ].e w S +X+X",
"+X+X+X+X+XT.C 3 d l Z.P.L.L.J.J.V.C.L.L.J.D.b.%.* B &.g 1 H ",
"+X+X+X+X+XU.e ; ] :.S.L.L.L.L.J.V.x.l.V.P.P.L.t.@.c.B.t = G ",
"+X+X+X+X+XU.e ; ] >.C.L.J.L.L.L.L.j.l +.r.c.G.K.H.3.} 8 < G ",
"+X+X+X+X+XU.e * l } Z.J.J.L.L.J.L.s.a p 7 [ 3.<.<.t & r ~ ) ",
"+X+X+X+X+X~.D P < : -.i.C.J.L.L.L.J.J.z.i.] > - $ * * A +X+X",
"+X+X+X+X+X+X+XR.F A : 5 6.k.D.G.J.K.J.j.*...] 5 & 4 G W +X+X",
"+X+X+X+X+X+X+X+X+XF & - z ..e.q.h.h.j.>...] ] 5 & r +X+X+X+X",
"+X+X+X+X+X+X+X( W G $ > 4.8.X.x 6 6 6 > - x 4.h * V +X+X+X+X",
"+X+X+X+X+X+X+X/ V 9 O.,.4.O.> 2 C = = = % - 7 i w S +X+X+X+X",
"+X+X+X+X+X+X+X( C Z j h q 8 & = / +X+Xw # % % C +X+X+X+X+X+X",
"+X+X+X+X+X+X+X+X+X( = % & & & < U +X+X+X+X+X+X+X+X+X+X+X+X+X",
"+X+X+X+X+X+X+X+X+X+X+X+X+X+X+X+X+X+X+X+X+X+X+X+X+X+X+X+X+X+X",
"+X+X+X+X+X+X+X+X+X+X+X+X+X+X+X+X+X+X+X+X+X+X+X+X+X+X+X+X+X+X"
};
