/* XPM */
static char *duck_n_1[] = {
/* columns rows colors chars-per-pixel */
"30 30 181 2",
"   c #000000",
".  c #0D0012",
"X  c #150018",
"o  c #251625",
"O  c #2B1B2A",
"+  c #34222E",
"@  c #3F2C35",
"#  c #3C2D3D",
"$  c #3F323E",
"%  c #472D2E",
"&  c #452F34",
"*  c #4C342F",
"=  c #43313D",
"-  c #4C3534",
";  c #4A3639",
":  c #4E3933",
">  c #573B2D",
",  c #533C37",
"<  c #533B3A",
"1  c #593D35",
"2  c #653F32",
"3  c #683D34",
"4  c #443644",
"5  c #453944",
"6  c #473B49",
"7  c #483744",
"8  c #4E3E42",
"9  c #493D49",
"0  c #5D4233",
"q  c #5D433B",
"w  c #624132",
"e  c #674B3D",
"r  c #6E553D",
"t  c #75462D",
"y  c #744C3F",
"u  c #7C4733",
"i  c #7D4834",
"p  c #784938",
"a  c #7F542A",
"s  c #70573D",
"d  c #765A3E",
"f  c #4D424E",
"g  c #4F4150",
"h  c #544345",
"j  c #584043",
"k  c #5B4749",
"l  c #5B4A46",
"z  c #5C494A",
"x  c #514551",
"c  c #554B54",
"v  c #574D58",
"b  c #5A4D54",
"n  c #594E5A",
"m  c #5D545D",
"M  c #6E5946",
"N  c #625153",
"B  c #615158",
"V  c #655A5F",
"C  c #6E5B52",
"Z  c #705A46",
"A  c #625662",
"S  c #635A63",
"D  c #695E66",
"F  c #6B6265",
"G  c #6C646A",
"H  c #6F686D",
"J  c #756665",
"K  c #71686E",
"L  c #756E73",
"P  c #777274",
"I  c #777079",
"U  c #7A7276",
"Y  c #7E767B",
"T  c #7F797C",
"R  c #874C2D",
"E  c #89542E",
"W  c #815433",
"Q  c #855A30",
"!  c #895C32",
"~  c #945C2B",
"^  c #9F572E",
"/  c #80653B",
"(  c #8B6632",
")  c #8A6B35",
"_  c #8B6B3A",
"`  c #96622D",
"'  c #936F36",
"]  c #9F6F31",
"[  c #9E732C",
"{  c #94743A",
"}  c #A75A2E",
"|  c #A65A30",
" . c #A15E3B",
".. c #A0652A",
"X. c #A76D2C",
"o. c #A77027",
"O. c #AD752D",
"+. c #A37E33",
"@. c #A97E30",
"#. c #BF6934",
"$. c #B0762D",
"%. c #B27C2D",
"&. c #B87724",
"*. c #BC7B27",
"=. c #856641",
"-. c #856A40",
";. c #827D7D",
":. c #D6702F",
">. c #AD8839",
",. c #BE8026",
"<. c #C58526",
"1. c #C0872C",
"2. c #C38C2E",
"3. c #CD8D25",
"4. c #C9882C",
"5. c #C18B33",
"6. c #C7902C",
"7. c #CA952D",
"8. c #C49A35",
"9. c #D49425",
"0. c #D3932A",
"q. c #D69926",
"w. c #D99724",
"e. c #DB9A25",
"r. c #DB9F28",
"t. c #D19D33",
"y. c #CEA53A",
"u. c #D6A12E",
"i. c #DCA026",
"p. c #DEA22B",
"a. c #D2A73A",
"s. c #D5AC3B",
"d. c #D8A734",
"f. c #DDAD34",
"g. c #DDB339",
"h. c #E0A627",
"j. c #E1A62A",
"k. c #E3AC2C",
"l. c #E6AF30",
"z. c #E7B32C",
"x. c #E9B62E",
"c. c #EABA2E",
"v. c #E5B433",
"b. c #E9B632",
"n. c #ECBB33",
"m. c #EFC333",
"M. c #F0C534",
"N. c #F1C739",
"B. c #F2C834",
"V. c #858183",
"C. c #8C8683",
"Z. c #8C8489",
"A. c #8F8C87",
"S. c #8E888A",
"D. c #908A8C",
"F. c #938D91",
"G. c #959191",
"H. c #9A9496",
"J. c #9B9598",
"K. c #9C9B97",
"L. c #9F989A",
"P. c #9F9BA0",
"I. c #A39C9E",
"U. c #A2A199",
"Y. c #A7A3A5",
"T. c #A6A9A3",
"R. c #AAA6A6",
"E. c #ACA6A9",
"W. c #AAABA6",
"Q. c #ADAEA8",
"!. c #B3AFB2",
"~. c #B3B8B3",
"^. c #BBB7B7",
"/. c #BBB7B9",
"(. c #BDB9B7",
"). c #C1C7B5",
"_. c #C6C3C3",
"`. c #CEC9CA",
"'. c #DBDCD7",
"]. c #FFFFFE",
"[. c None",
/* pixels */
"[.[.[.[.[.[.[.[.[.[.[.[.[.[.[.[.[.[.[.[.[.[.[.[.[.[.[.[.[.[.",
"[.[.[.[.[.[.[.[.[.[.[.[.[.[.].].'.W._.].[.[.[.[.[.[.[.[.[.[.",
"[.[.[.[.[.[.[.[.[.[.[.[.[.E.S v x f x G [.[.[.[.[.[.[.[.[.[.",
"[.[.[.[.[.[.[.[.[.[.[.[.S B =.) ) ) d q m [.[.[.[.[.[.[.[.[.",
"[.[.[.[.[.[.[.[.[.[.F.n Z ( f.M.M.B.g.) M 9 S [.[.[.[.[.[.[.",
"[.[.[.[.[.[.[.[.[.x N r +.m.m.m.m.m.N.N.>.s l f D.[.[.[.[.[.",
"[.[.[.[.[.[.[.G m 9 - y.m.m.m.m.m.N.m.M.M.s., 5 ;.[.[.[.[.[.",
"[.[.[.[.[.[.[.T 4 # , s.N.M.M.m.m.m.m.M.M.s.* 4 ;.[.[.[.[.[.",
"[.[.[.[.[.[.[.Z.x 4 , a.N.M.M.M.m.m.m.m.n.d.* 4 C.[.[.[.[.[.",
"[.[.[.[.[.[.[.I.F.A - 5.k.m.M.M.m.m.m.m.k.6.* 5 C.[.[.[.[.[.",
"[.[.[.[.[.[.[.[.).f ; %.9.i.x.m.M.M.n.k.p.5., g K.[.[.[.[.[.",
"[.[.[.[.[.[.[.[.F L D w a &.q.i.h.h.h.h.] e J Y W.[.[.[.[.[.",
"[.[.[.[.[.[.[.[.T.m q ! o.<.q.e.e.e.e.i.$.W z D (.^.[.[.[.[.",
"[.[.[.[.[.[.[.m g d [ u.z.z.z.z.z.z.x.x.l.t.@.=.b Y ].[.[.[.",
"[.[.[.[.[.[.[.L = ' c.m.m.m.m.m.B.M.M.M.m.m.n.8.{ C m L [.[.",
"[.[.[.[.[.L.n C _ 8.B.M.M.M.M.c.h.h.f.n.m.m.M.n.l.0 4 G [.[.",
"[.[.[.[.[.L.f 1 v.M.N.m.m.N.x.k.p.r.r.p.x.m.m.z.0.0 6 F [.[.",
"[.[.[.[.[.G.f 1 d.n.N.N.m.x.p.p.b.b.z.q.f.c.m.7.` q c I [.[.",
"[.[.[.[.[.S.f 1 4.p.n.M.z.r.z.z.e.e.i.b.z.z.x.o.@ b Y H.[.[.",
"[.[.[.[.[.Y f q O.<.9.x.c.b.i.9.w.w.w.w.k.b.6.( 5 D [.[.[.[.",
"[.[.[.[.[.Y V b ; Q ,.3.9.w.w.w.w.e.w.w.0.1.> h L H [.[.[.[.",
"[.[.[.[.[.[.[.m n l 0 ..*.3.3.3.3.0.0.0.X.t & 9 U.[.[.[.[.[.",
"[.[.[.[.[.[.[.[.[.I K j 3 R ~ ~ ~ ~ ~ E w = S L G.[.[.[.[.[.",
"[.[.[.[.[.[.[.[.].U V 7 3 } | R % - - = B n G [.[.[.[.[.[.[.",
"[.[.[.[.[.[.[.[.].D 8  .#.:.:.| + 9 n 9 L [.[.[.[.[.[.[.[.[.",
"[.[.[.[.[.[.[.[.].G z p u u u M = f [.[.[.[.[.[.[.[.[.[.[.[.",
"[.[.[.[.[.[.[.[.[.[.D 9 5 6 6 c ~.[.[.[.[.[.[.[.[.[.[.[.[.[.",
"[.[.[.[.[.[.[.[.[.[.[.[.[.[.[.[.[.[.[.[.[.[.[.[.[.[.[.[.[.[.",
"[.[.[.[.[.[.[.[.[.[.[.[.[.[.[.[.[.[.[.[.[.[.[.[.[.[.[.[.[.[.",
"[.[.[.[.[.[.[.[.[.[.[.[.[.[.[.[.[.[.[.[.[.[.[.[.[.[.[.[.[.[."
};
