/* XPM */
static char *duck_w_1[] = {
/* columns rows colors chars-per-pixel */
"30 30 188 2",
"   c black",
".  c #0F000A",
"X  c #1C0B16",
"o  c #1F0F1A",
"O  c #22111C",
"+  c #2C161D",
"@  c #32191B",
"#  c #311F28",
"$  c #2F2129",
"%  c #35242D",
"&  c #39262F",
"*  c #3D2B2D",
"=  c #372933",
"-  c #3B2C34",
";  c #3E3037",
":  c #3E313A",
">  c #412D2F",
",  c #45302F",
"<  c #49332F",
"1  c #433236",
"2  c #42353C",
"3  c #4F3331",
"4  c #4E3B36",
"5  c #4A3B3E",
"6  c #53362C",
"7  c #553B2D",
"8  c #5A3729",
"9  c #593A2D",
"0  c #563A32",
"q  c #533E3B",
"w  c #5C3F31",
"e  c #583E39",
"r  c #623D2E",
"t  c #433640",
"y  c #463B43",
"u  c #4A3D43",
"i  c #5D422D",
"p  c #53403C",
"a  c #5E4231",
"s  c #5B423B",
"d  c #63472D",
"f  c #6B4C2E",
"g  c #634232",
"h  c #674B34",
"j  c #644D3C",
"k  c #6E502D",
"l  c #734A2E",
"z  c #7C4D2D",
"x  c #724731",
"c  c #744A34",
"v  c #734E38",
"b  c #74512C",
"n  c #79542B",
"m  c #7E5F2E",
"M  c #735531",
"N  c #725836",
"B  c #735A3C",
"V  c #7C5731",
"C  c #7A5039",
"Z  c #785C37",
"A  c #7E6136",
"S  c #7B603A",
"D  c #4E4146",
"F  c #4D424A",
"G  c #424455",
"H  c #534243",
"J  c #52474D",
"K  c #53494E",
"L  c #594846",
"P  c #584A4C",
"I  c #554A51",
"U  c #594E52",
"Y  c #5C5256",
"T  c #5D535B",
"R  c #6E4E40",
"E  c #6B5643",
"W  c #635757",
"Q  c #625658",
"!  c #60585C",
"~  c #71574B",
"^  c #795F40",
"/  c #705C55",
"(  c #645F65",
")  c #685E62",
"_  c #6B6265",
"`  c #6C6669",
"'  c #706769",
"]  c #726B6C",
"[  c #776F70",
"{  c #7A777C",
"}  c #7D7878",
"|  c #824F2F",
" . c #835B2D",
".. c #8E552B",
"X. c #8C5D2B",
"o. c #92582C",
"O. c #945C3A",
"+. c #9C5D31",
"@. c #83642F",
"#. c #8B682F",
"$. c #846531",
"%. c #83653B",
"&. c #876832",
"*. c #8F6B32",
"=. c #94632C",
"-. c #93682F",
";. c #9A612A",
":. c #9D6929",
">. c #906D34",
",. c #937034",
"<. c #987334",
"1. c #9D7831",
"2. c #A3642B",
"3. c #A46B2B",
"4. c #AA6A2B",
"5. c #A96F3D",
"6. c #A2742D",
"7. c #AC742C",
"8. c #AC7C2E",
"9. c #B56935",
"0. c #BD6E32",
"q. c #B67D2D",
"w. c #BA7F2D",
"e. c #BB713B",
"r. c #A07758",
"t. c #C47232",
"y. c #C27739",
"u. c #D57D36",
"i. c #AB8132",
"p. c #AE8939",
"a. c #B3852E",
"s. c #BC832C",
"d. c #BE892D",
"f. c #B68730",
"g. c #B18933",
"h. c #BA8930",
"j. c #B79035",
"k. c #BC9433",
"l. c #BB9239",
"z. c #88817F",
"x. c #C1862A",
"c. c #C48C2E",
"v. c #C88F2E",
"b. c #C6932F",
"n. c #CC932E",
"m. c #C19831",
"M. c #CD9530",
"N. c #CA9D32",
"B. c #D0932E",
"V. c #D59D2F",
"C. c #D19630",
"Z. c #D59E31",
"A. c #CDA235",
"S. c #D9A02F",
"D. c #D3A432",
"F. c #D5AA34",
"G. c #D9A532",
"H. c #DDAA32",
"J. c #DEB235",
"K. c #E0AC2F",
"L. c #E0AD31",
"P. c #E3B433",
"I. c #E6B933",
"U. c #E9BC34",
"Y. c #848384",
"T. c #8B8685",
"R. c #8D8B84",
"E. c #928D8B",
"W. c #9A9593",
"Q. c #9C9B93",
"!. c #9D9B9A",
"~. c #A09C9A",
"^. c #A4A29E",
"/. c #A6A2A0",
"(. c #A9A6A2",
"). c #ABA9A6",
"_. c #AEACA8",
"`. c #B0AEAA",
"'. c #B3B4B3",
"]. c #BDBCB7",
"[. c #BDC0B9",
"{. c #C4C4BE",
"}. c #CCCEC7",
"|. c #CECFC8",
" X c #E6E6E4",
".X c #F1F6EA",
"XX c gray100",
"oX c None",
/* pixels */
"oXoXoXoXoXoXoXoXoXoXoXoXoXoXoXoXoXoXoXoXoXoXoXoXoXoXoXoXoXoX",
"oXoXoXoXoXoXoXoXoXoXoXoXoXoXoXoXoXoXoXoXoXoXoXoXoXoXoXoXoXoX",
"oXoXoXoXoXoXoXoXoXoXoXoXoXoXoXXXXXoXoXoXoXoXoXoXoXoXoXoXoXoX",
"oXoXoXoXoXoXoXoXoX` t : : : t D !.oXoXoXoXoXoXoXoXoXoXoXoXoX",
"oXoXoXoXoXoXoX{ y p A &.$.$.&.Z 5 I XXoXoXoXoXoXoXoXoXoXoXoX",
"oXoXoXoXoX.XK L N &.F.U.I.U.U.A.@.E J T oXoXoXoXoXoXoXoXoXoX",
"oXoXoX~.K J - 1 >.p.J.U.U.U.U.U.I.j.M E D T oXoXoXoXoXoXoXoX",
"oXoXoXz.2 - - - 1 p p.k.k.k.l.N.I.I.I.>.= D oXoXoXoXoXoXoXoX",
"oXoXoXT.: = D G _ _ 1 1 i i a n m.F.U.,.% y oXoXoXoXoXoXoXoX",
"oX}.U Y q < ~ r./ Y 4 d N.F.F.g.i >.U.>.- 2 oXoXoXoXoXoXoXoX",
"oX[.D 5 O.9.e.e.d i l.F.P.I.U.J.A.N.C. .% 2 oXoXoXoXoXoXoXoX",
"oX{.P P s 9 o.2.o.;.H.I.I.I.P.I.P.M.4.l - 5 oXoXoXoXoXoXoXoX",
"oXoXoXoX: 5 0 9 7.n.J.P.I.J.V.c.7.X.6 H u H oXoXoXoXoXoXoXoX",
"oXoXoXoXoXoX: D h b b.S.S.V.n.7.8 s 2 J oXoXoXoXoXoXoXoXoXoX",
"oXoXoXoXoX_ y q n =.V.H.H.H.H.N.1.%.: I oXoXoXoXoXoXoXoXoXoX",
"oXoXoXoXoXY.- > a.H.P.I.U.I.I.K.S.a.>.^ t I oXF : I oXoXoXoX",
"oXoXoX^.D D Z #.F.P.I.I.K.K.I.K.S.V.S.8.$.B u B $.j 2 U oXoX",
"oXoXoXQ.: * j.U.P.I.I.F.6.8.P.I.I.H.n.s.i.*.M k.I.k = u oXoX",
"oXoXoXR.- * j.U.I.I.I.A.< i J.I.I.P.H.#.& <.I.P.D.f - y oXoX",
"oXoXoXR.- * a.P.I.I.P.D.d f j.m.k.a.:.n 7 6.H.d.3.g ; J oXoX",
"oXoXoXQ.: ; -.s.G.P.P.P.M.8.i 7 7 7 7 =.x.s.q.l 1 P Y ' oXoX",
"oXoXoXE.U W p 7 ;.7.D.H.J.H.D.M.q.q.q.q.s. .< L F ) oXoXoXoX",
"oXoXoXT.u 1 l z 8 8 X.3.b.n.M.s.4.2.2.n 7 p D T oXoXoXoXoXoX",
"oXoXoX] 2 * +.0...z 6 6 9 i a w 9 | t.| = 2 K Y oXoXoXoXoXoX",
"oXoXoX] u D g r 9 0 H y = = y : % x u.y.r.z & K oXoXoXoXoXoX",
"oXoXoXoXoX'.y = : : ( oXoXoXoXt - 3 x c C R 1 U oXoXoXoXoXoX",
"oXoXoXoXoXoXoXoXoXoXoXoXoXoXoXu : - = = = y oXoXoXoXoXoXoXoX",
"oXoXoXoXoXoXoXoXoXoXoXoXoXoXoXoXoXoXoXoXoXoXoXoXoXoXoXoXoXoX",
"oXoXoXoXoXoXoXoXoXoXoXoXoXoXoXoXoXoXoXoXoXoXoXoXoXoXoXoXoXoX",
"oXoXoXoXoXoXoXoXoXoXoXoXoXoXoXoXoXoXoXoXoXoXoXoXoXoXoXoXoXoX"
};
