/* XPM */
static char *duck_s_1[] = {
/* columns rows colors chars-per-pixel */
"30 30 229 2",
"   c #000000",
".  c #06000B",
"X  c #170613",
"o  c #261926",
"O  c #251C2C",
"+  c #2A1B23",
"@  c #3D2C35",
"#  c #3D2F3D",
"$  c #3E323F",
"%  c #3E2F40",
"&  c #3E3444",
"*  c #43292F",
"=  c #432B33",
"-  c #41323F",
";  c #473B3F",
":  c #4B3739",
">  c #4F3933",
",  c #502F2F",
"<  c #50352D",
"1  c #503336",
"2  c #543A31",
"3  c #5C3E33",
"4  c #623831",
"5  c #413642",
"6  c #433845",
"7  c #463E49",
"8  c #4B3C43",
"9  c #4B3F4A",
"0  c #55403E",
"q  c #564D39",
"w  c #5B443B",
"e  c #664C2A",
"r  c #694F2B",
"t  c #634232",
"y  c #674936",
"u  c #674F3B",
"i  c #6A4331",
"p  c #6B4939",
"a  c #6C522C",
"s  c #6D5A3E",
"d  c #764C2E",
"f  c #714D33",
"g  c #7C4534",
"h  c #7B4A3A",
"j  c #725635",
"k  c #775B30",
"l  c #735B3B",
"z  c #7C5C32",
"x  c #7D5F38",
"c  c #776036",
"v  c #7C6032",
"b  c #4C4147",
"n  c #4C424C",
"m  c #4F4651",
"M  c #4D4C54",
"N  c #4E504F",
"B  c #524344",
"V  c #50474F",
"C  c #564C49",
"Z  c #594544",
"A  c #594A44",
"S  c #5A4949",
"D  c #534C55",
"F  c #534858",
"G  c #5A4F54",
"H  c #565548",
"J  c #59554A",
"K  c #585847",
"L  c #59594D",
"P  c #565153",
"I  c #55525A",
"U  c #5D555D",
"Y  c #5C5A5E",
"T  c #5E5B64",
"R  c #5E615C",
"E  c #604E48",
"W  c #684A49",
"Q  c #6F5345",
"!  c #68514F",
"~  c #6B5A4B",
"^  c #60545B",
"/  c #665956",
"(  c #64595D",
")  c #6B5C54",
"_  c #725A40",
"`  c #625762",
"'  c #645D64",
"]  c #6F5D64",
"[  c #685D69",
"{  c #715D63",
"}  c #69655D",
"|  c #676168",
" . c #6F6260",
".. c #6A656B",
"X. c #6F6C71",
"o. c #6B726E",
"O. c #70686E",
"+. c #716B71",
"@. c #796F79",
"#. c #757175",
"$. c #72757E",
"%. c #75787A",
"&. c #7A7377",
"*. c #7C737C",
"=. c #7E797F",
"-. c #7F7D81",
";. c #7F8784",
":. c #7A9195",
">. c #8D4C36",
",. c #86532E",
"<. c #8F5C2E",
"1. c #875530",
"2. c #8B583C",
"3. c #9C5723",
"4. c #9D5229",
"5. c #955036",
"6. c #965A35",
"7. c #9D5132",
"8. c #88642C",
"9. c #816435",
"0. c #8E6434",
"q. c #8E6D3F",
"w. c #92622E",
"e. c #916B31",
"r. c #967D3A",
"t. c #997836",
"y. c #A4522A",
"u. c #AB572E",
"i. c #A95F2A",
"p. c #A6662B",
"a. c #AA6E2C",
"s. c #A16936",
"d. c #AA6239",
"f. c #A4792D",
"g. c #A37433",
"h. c #B66029",
"j. c #B46829",
"k. c #B96739",
"l. c #B2742B",
"z. c #B0782A",
"x. c #BE742D",
"c. c #855641",
"v. c #837A7E",
"b. c #C76935",
"n. c #C66B38",
"m. c #CA6A36",
"M. c #CB7D27",
"N. c #D56E34",
"B. c #DE6F32",
"V. c #E07131",
"C. c #EA7531",
"Z. c #827E81",
"A. c #AD8635",
"S. c #BE8B2E",
"D. c #B68131",
"F. c #B68D32",
"G. c #BE8A36",
"H. c #BF9333",
"J. c #AF9444",
"K. c #C28329",
"L. c #CB8226",
"P. c #CC8F2B",
"I. c #CE9026",
"U. c #C29631",
"Y. c #C2983D",
"T. c #CA9332",
"R. c #D2952D",
"E. c #D4982B",
"W. c #DA9C25",
"Q. c #DA9B2C",
"!. c #D49E30",
"~. c #CAA233",
"^. c #CFA73A",
"/. c #D6A22C",
"(. c #DBA126",
"). c #D8A22F",
"_. c #DEA82F",
"`. c #D3A036",
"'. c #D3AE37",
"]. c #DEA831",
"[. c #D7B23A",
"{. c #D9B23C",
"}. c #E5AC2C",
"|. c #E7B62E",
" X c #E8B32D",
".X c #ECBB2D",
"XX c #E4B735",
"oX c #E5BA37",
"OX c #E8B638",
"+X c #EBBD32",
"@X c #EABF39",
"#X c #EEC32F",
"$X c #EFC432",
"%X c #EFC53B",
"&X c #F0C42F",
"*X c #F1C532",
"=X c #F0C639",
"-X c #F0C835",
";X c #858286",
":X c #80848D",
">X c #908B8F",
",X c #918E92",
"<X c #998F95",
"1X c #959395",
"2X c #989497",
"3X c #99939F",
"4X c #9B9A9A",
"5X c #84A3A6",
"6X c #95B9BD",
"7X c #9ABABD",
"8X c #A29C9E",
"9X c #A19FA1",
"0X c #A4A1A3",
"qX c #A8AFAA",
"wX c #B0ABAE",
"eX c #B7AEBF",
"rX c #B7B1B6",
"tX c #B2B4BA",
"yX c #B4B8B6",
"uX c #B9B7BE",
"iX c #AABEC1",
"pX c #B5BCC1",
"aX c #B0CDCF",
"sX c #C1C6C4",
"dX c #C6CDC7",
"fX c #F1ECF1",
"gX c #FFFFF4",
"hX c gray100",
"jX c None",
/* pixels */
"jXjXjXjXjXjXjXjXjXjXjXjXjXjXjXjXjXjXjXjXjXjXjXjXjXjXjXjXjXjX",
"jXjXjXjXjXjXjXjXjXjXjXjXjXjXjXjXjXjXjXjXjXjXjXjXjXjXjXjXjXjX",
"jXjXjXjXjXjXjXjXjXjXjXjXhXjXjXjXjXjXjXjXjXjXjXjXjXjXjXjXjXjX",
"jXjXjXjXjXjXjXjXjXjXjXjXjX-.6 F ' ` & & ;XjXjXjXjXjXjXjXjXjX",
"jXjXjXjXjXjXjXjXjXjXjX:XI ) x k z z k l / T jXjXjXjXjXjXjXjX",
"jXjXjXjXjXjXjXjXjXjX' C s t.%X$X+X*X*X{.9.~ ' Z.jXjXjXjXjXjX",
"jXjXjXjXjXjXjXjX2X^ ! e ^.$X#X#X&X+X*X=X=XA.t ) ' tXjXjXjXjX",
"jXjXjXjXjXjXjXjX=.5 j F.~.'.'.@X=X=XoX[.'.U.t.< m tXjXjXjXjX",
"jXjXjXjXjXjXjXjX*.& 8 L L H q J.[.[.A.q K K A @ n rXjXjXjXjX",
"jXjXjXjXjXjXjXjX@.$ %.aX6X:.N w t t b I 5X6XaXn n eXjXjXjXjX",
"jXjXjXjXjXjXjXjX[ - U :Xo.} Q d.b.b.2.A R o.%.8 9 3XjXjXjXjX",
"jXjXjXjXjXjXjXjX..9 G > c.d.n.V.C.C.N.k.0.p 8 U m 2XjXjXjXjX",
"jXjXjXjXjXjXjXjX( 5 y <.p.p.y.y.y.y.u.h.x.,.@ U jXjXjXjXjXjX",
"jXjXjXjXjXjXjXhX' - z !./.K.3.4.y.y.j.K._.S.0.w n sXjXjXjXjX",
"jXjXjXjXjXjXjXF E 0.U.*X#X|.E.L.M.L.Q.|.*X.X].f.2.8 | jXjXjX",
"jXjXjXjXjXjXjX& 2 !..X*X#X#X*X X}.}..X$X$X$X$X#XA.@ +.jXjXjX",
"jXjXjXjXjXZ.b u 8.XX$X#X$X*X-X&X&X-X&X-X#X#X$X*X~.v ~ D 1XjX",
"jXjXjXjXjX| @ e.}.}.OX*X*X#X$X$X&X&X&X#X-X*X$X.X.X@Xa b 0XjX",
"jXjXjXjXjX..b q.U.p.T.=X$X$X#X#X#X#X#X-X$X%X$XW.(.oXa 6 >XjX",
"jXjXjXjXjX,Xv.) Z = 0.OX$X$X$X#X#X#X&X&X#X$XOXa.a.Y._ F 1XjX",
"jXjXjXjXjXjXjX&.` - f z./.XX#X#X.X&X*X.XW.I.D.y 8 A  .0X8XjX",
"jXjXjXjXjXjXjXjX] ( S < ,.l.Q.E.R.R.R.E.P.w.> ( ..T I jXjXjX",
"jXjXjXjXjXjXjXjXjXjXn 9 : i s.d 4 t t 4 3 Z D M jXjXjXjXjXjX",
"jXjXjXjXjXjXjXjXjXjXjXv.D 8 1 = 1 >.7.5.* n hXjXjXjXjXjXjXjX",
"jXjXjXjXjXjXjXjXjXjXjX;X+.` m 5 4 m.B.n., F fXjXjXjXjXjXjXjX",
"jXjXjXjXjXjXjXjXjXjXjXjXjXjXhX' W g >.h ! O.hXjXjXjXjXjXjXjX",
"jXjXjXjXjXjXjXjXjXjXjXjXjXjXjXjXU n 6 M X.jXjXjXjXjXjXjXjXjX",
"jXjXjXjXjXjXjXjXjXjXjXjXjXjXjXjXjXjXjXdXyXjXjXjXjXjXjXjXjXjX",
"jXjXjXjXjXjXjXjXjXjXjXjXjXjXjXjXjXjXjXjXjXjXjXjXjXjXjXjXjXjX",
"jXjXjXjXjXjXjXjXjXjXjXjXjXjXjXjXjXjXjXjXjXjXjXjXjXjXjXjXjXjX"
};
