/* XPM */
static char *duck_s_2[] = {
/* columns rows colors chars-per-pixel */
"30 30 196 2",
"   c black",
".  c #150515",
"X  c #1D0F29",
"o  c #210D1C",
"O  c #241722",
"+  c #38242E",
"@  c #322334",
"#  c #352838",
"$  c #3A2A36",
"%  c #3C2E3C",
"&  c #3E313E",
"*  c #4D2F2F",
"=  c #432B34",
"-  c #42353E",
";  c #4C363C",
":  c #4E3A38",
">  c #503435",
",  c #543B34",
"<  c #5C3E35",
"1  c #623A34",
"2  c #423642",
"3  c #453A43",
"4  c #463B48",
"5  c #4B3C42",
"6  c #493E49",
"7  c #533E40",
"8  c #564A3B",
"9  c #5F4334",
"0  c #5B463E",
"q  c #664A2C",
"w  c #634235",
"e  c #674D3D",
"r  c #6A4333",
"t  c #6F4D34",
"y  c #694B3C",
"u  c #6B512E",
"i  c #6C5230",
"p  c #6E573E",
"a  c #734738",
"s  c #744B32",
"d  c #7C4634",
"f  c #7D4C3D",
"g  c #735435",
"h  c #765B33",
"j  c #725839",
"k  c #7B5D34",
"l  c #7F6236",
"z  c #45434D",
"x  c #4F4640",
"c  c #4D434D",
"v  c #4E4351",
"b  c #544343",
"n  c #534C40",
"m  c #5B4642",
"M  c #5E4842",
"N  c #524752",
"B  c #554B53",
"V  c #554D58",
"C  c #5A4E54",
"Z  c #575057",
"A  c #50555D",
"S  c #595157",
"D  c #5B525A",
"F  c #535A62",
"G  c #5D5B64",
"H  c #585F68",
"J  c #624A45",
"K  c #614D4D",
"L  c #645249",
"P  c #6D5742",
"I  c #6A5749",
"U  c #625658",
"Y  c #635B5F",
"T  c #6E5E5B",
"R  c #635B63",
"E  c #685F63",
"W  c #7D675C",
"Q  c #646065",
"!  c #64616A",
"~  c #696266",
"^  c #6B6369",
"/  c #6D686F",
"(  c #6D6A71",
")  c #697179",
"_  c #71676C",
"`  c #706A6E",
"'  c #736D72",
"]  c #7A706D",
"[  c #767374",
"{  c #74767A",
"}  c #787176",
"|  c #7A767B",
" . c #7C797B",
".. c #8D4E34",
"X. c #87542E",
"o. c #8F5D2D",
"O. c #8D593F",
"+. c #9D5626",
"@. c #9D5228",
"#. c #965032",
"$. c #9D5332",
"%. c #8C6432",
"&. c #90622E",
"*. c #936A2F",
"=. c #987836",
"-. c #987B3B",
";. c #A3522A",
":. c #AB572D",
">. c #AA5E2A",
",. c #A85F37",
"<. c #B25F2C",
"1. c #A6652B",
"2. c #AA6D2D",
"3. c #A5613C",
"4. c #A36833",
"5. c #A6752D",
"6. c #A5792D",
"7. c #B36928",
"8. c #B3643A",
"9. c #B2762A",
"0. c #BE742B",
"q. c #815E4E",
"w. c #8A5942",
"e. c #8B604B",
"r. c #906F41",
"t. c #8E7061",
"y. c #827C7F",
"u. c #C66734",
"i. c #CC6B34",
"p. c #C17F29",
"a. c #CB7D27",
"s. c #C9713E",
"d. c #DB7134",
"f. c #E07232",
"g. c #E97430",
"h. c #827D81",
"j. c #AE8633",
"k. c #B8812D",
"l. c #BC8B2E",
"z. c #BC8A33",
"x. c #BF9233",
"c. c #B29441",
"v. c #C2872A",
"b. c #CC8227",
"n. c #CD8F26",
"m. c #CE8E28",
"M. c #C39530",
"N. c #C49938",
"B. c #C99430",
"V. c #D2952B",
"C. c #D49A2B",
"Z. c #DC9E25",
"A. c #DA9A2A",
"S. c #CCA434",
"D. c #D7A22D",
"F. c #DCA028",
"G. c #DEA82F",
"H. c #D3A131",
"J. c #D4AD36",
"K. c #DEA730",
"L. c #DBAF37",
"P. c #D9B33A",
"I. c #E4AC2C",
"U. c #E7B42D",
"Y. c #E8B32C",
"T. c #EABA2E",
"R. c #E5B633",
"E. c #E4BA37",
"W. c #EBBD32",
"Q. c #EEC331",
"!. c #EFC43A",
"~. c #F0C42F",
"^. c #F0C532",
"/. c #818284",
"(. c #878C8E",
"). c #908F8E",
"_. c #929392",
"`. c #969A9C",
"'. c #9F979B",
"]. c #999897",
"[. c #9F999C",
"{. c #A0969C",
"}. c #A8A7A9",
"|. c #B1BDB3",
" X c #BECAC8",
".X c #CBCFBB",
"XX c #CCD6D3",
"oX c #CFDFD7",
"OX c #DBE6DD",
"+X c #E7E7CF",
"@X c #EEEEDB",
"#X c #F3F7F1",
"$X c #F6FFFF",
"%X c #F9FDF5",
"&X c #FDFFFC",
"*X c None",
/* pixels */
"*X*X*X*X*X*X*X*X*X*X*X*X*X*X*X*X*X*X*X*X*X*X*X*X*X*X*X*X*X*X",
"*X*X*X*X*X*X*X*X*X*X*X*X*X*X*X*X*X*X*X*X*X*X*X*X*X*X*X*X*X*X",
"*X*X*X*X*X*X*X*X*X*X*X*X*X*X*X*X*X*X*X*X*X*X*X*X*X*X*X*X*X*X",
"*X*X*X*X*X*X*X*X*X*X*X*X*X^ v v v v v N ^ *X*X*X*X*X*X*X*X*X",
"*X*X*X*X*X*X*X*X*X*X*Xh.v L h k k k h j b V OX*X*X*X*X*X*X*X",
"*X*X*X*X*X*X*X*X*X*XR C P =.W.Q.^.Q.Q.L.l I 6 Z *X*X*X*X*X*X",
"*X*X*X*X*X*X*X*X' V L q J.Q.Q.Q.Q.Q.Q.!.!.j.9 T _ ].*X*X*X*X",
"*X*X*X*X*X*X*X*X^ & i z.S.J.J.E.^.!.E.J.J.M.5., 4 h.*X*X*X*X",
"*X*X*X*X*X*X*X*X` % - n n n 8 c.P.P.-.8 8 n 8 # 2  .*X*X*X*X",
"*X*X*X*X*X*X*X*XE & D { F A c 0 9 w 0 z H ) / & & ` *X*X*X*X",
"*X*X*X*X*X*X*X*X^ 2 N _ W q.w.8.u.u.3.t.e.J Y 2 3 ~ *X*X*X*X",
"*X*X*X*X*X*X*X*X .R C 7 O.8.i.d.g.g.d.s.3.a 3 Z D Y *X*X*X*X",
"*X*X*X*X*X*X*X*XC 6 y o.1.>.;.;.;.;.:.<.0.X.$ N OX*X*X*X*X*X",
"*X*X*X*X*X*X*X|.C % k H.D.v.+.@.;.;.7.p.K.v.&.M N [ $X*X*X*X",
"*X*X*X*X*X*XXXR m %.M.Q.~.U.C.b.a.a.A.Y.Q.W.G.5.h 5 D *X*X*X",
"*X*X*X*X*X*XoXN , H.T.Q.~.~.~.Y.I.I.W.^.^.Q.^.^.j.$ B *X*X*X",
"*X*X*X*X*XB 2 e %.L.~.Q.Q.^.^.^.^.^.Q.Q.Q.Q.Q.Q.N.%.M c [ *X",
"*X*X*X*X*X6 $ *.I.I.T.Q.^.Q.Q.Q.~.~.Q.Q.Q.Q.Q.T.T.W.u % B *X",
"*X*X*X*X*XS 2 r.z.2.B.Q.Q.Q.Q.Q.~.~.Q.Q.^.^.!.C.Z.W.u # B *X",
"*X*X*X*X*X~ }.] b = %.W.Q.Q.Q.Q.~.~.~.~.Q.T.R.2.2.N.p 4 ~ *X",
"*X*X*X*X*X*X&X| B % t 9.D.W.T.T.T.Q.T.T.Z.n.k.e 5 b _ ' | *X",
"*X*X*X*X*X*X*X*XV S b > X.9.A.C.V.V.C.V.m.&.: D ( 2 ` *X*X*X",
"*X*X*X*X*X*X*X*X*X*XR B ; r 4.s 9 w w w , 0 G ! *X*X*X*X*X*X",
"*X*X*X*X*X*X*X*X*X*X*Xy.B 5 > % > ..$.#.= & *X*X*X*X*X*X*X*X",
"*X*X*X*X*X*X*X*X*X*X*X| ~ N 3 & 1 i.f.u.* & .X*X*X*X*X*X*X*X",
"*X*X*X*X*X*X*X*X*X*X*X*X*X*X_.c J d a ..C 3 @X*X*X*X*X*X*X*X",
"*X*X*X*X*X*X*X*X*X*X*X*X*X*X*X*Xv 4 2 6 /.*X*X*X*X*X*X*X*X*X",
"*X*X*X*X*X*X*X*X*X*X*X*X*X*X*X*X*X*X*X*X*X*X*X*X*X*X*X*X*X*X",
"*X*X*X*X*X*X*X*X*X*X*X*X*X*X*X*X*X*X*X*X*X*X*X*X*X*X*X*X*X*X",
"*X*X*X*X*X*X*X*X*X*X*X*X*X*X*X*X*X*X*X*X*X*X*X*X*X*X*X*X*X*X"
};
