/* XPM */
static char *duck_n_2[] = {
/* columns rows colors chars-per-pixel */
"30 30 172 2",
"   c black",
".  c #3E272E",
"X  c #3A2631",
"o  c #3D2D37",
"O  c #3C2C3A",
"+  c #3F323F",
"@  c #3F2F40",
"#  c #3F3041",
"$  c #531A38",
"%  c #432D33",
"&  c #45333C",
"*  c #493233",
"=  c #4D393C",
"-  c #5E3A2E",
";  c #533432",
":  c #553C34",
">  c #5F3C30",
",  c #613B34",
"<  c #423542",
"1  c #463A45",
"2  c #453C4B",
"3  c #493D46",
"4  c #4A3D49",
"5  c #594136",
"6  c #5D433B",
"7  c #624639",
"8  c #624A36",
"9  c #634C3C",
"0  c #6C4731",
"q  c #6A5138",
"w  c #72452F",
"e  c #764F2D",
"r  c #7F472F",
"t  c #794C2C",
"y  c #74522F",
"u  c #7A532E",
"i  c #74553A",
"p  c #775935",
"a  c #785538",
"s  c #7D5E32",
"d  c #4E424C",
"f  c #4E4550",
"g  c #52444B",
"h  c #5A4746",
"j  c #5F4940",
"k  c #5A4B4C",
"l  c #514652",
"z  c #544A54",
"x  c #554D59",
"c  c #594D54",
"v  c #5C535C",
"b  c #5D5A61",
"n  c #614E45",
"m  c #634F4C",
"M  c #6D4C46",
"N  c #6F594F",
"B  c #635455",
"V  c #61565D",
"C  c #62585F",
"Z  c #6F5D5B",
"A  c #715F58",
"S  c #645B62",
"D  c #685D65",
"F  c #685F69",
"G  c #75614F",
"H  c #776353",
"J  c #796050",
"K  c #696166",
"L  c #6D656A",
"P  c #6F6871",
"I  c #706466",
"U  c #716A6E",
"Y  c #7A6B6B",
"T  c #706772",
"R  c #746C73",
"E  c #786F73",
"W  c #767074",
"Q  c #797376",
"!  c #7C767B",
"~  c #7D787C",
"^  c #85522C",
"/  c #835A33",
"(  c #9A552D",
")  c #955534",
"_  c #87652E",
"`  c #816234",
"'  c #856039",
"]  c #9C662B",
"[  c #9F692B",
"{  c #99793F",
"}  c #A5572E",
"|  c #A65A2E",
" . c #A05831",
".. c #A1652A",
"X. c #A7692A",
"o. c #A8632B",
"O. c #A46F31",
"+. c #AE722A",
"@. c #A57231",
"#. c #A47C3D",
"$. c #AA7F35",
"%. c #B1752B",
"&. c #B27A2E",
"*. c #B87125",
"=. c #B07B30",
"-. c #817C7D",
";. c #CA6C2D",
":. c #C56D30",
">. c #827C81",
",. c #BF832B",
"<. c #B38E36",
"1. c #B38D3B",
"2. c #BB8230",
"3. c #BD8A30",
"4. c #B7923B",
"5. c #AB8A42",
"6. c #C48126",
"7. c #C58928",
"8. c #CB872A",
"9. c #CC8B26",
"0. c #CE932C",
"q. c #CE992E",
"w. c #D69525",
"e. c #D49329",
"r. c #D79A25",
"t. c #D5992D",
"y. c #D89725",
"u. c #DA9A25",
"i. c #DA9B29",
"p. c #CEA638",
"a. c #DDA027",
"s. c #DEA32A",
"d. c #D0A838",
"f. c #D9A734",
"g. c #DDB237",
"h. c #DEB53C",
"j. c #E1A62B",
"k. c #E3AA2B",
"l. c #E7B22D",
"z. c #E8B42D",
"x. c #ECBB2F",
"c. c #E2B433",
"v. c #E2B73B",
"b. c #E6BB35",
"n. c #E4BA3A",
"m. c #E9B431",
"M. c #ECBD32",
"N. c #C9A240",
"B. c #D9B243",
"V. c #EFC333",
"C. c #F0C533",
"Z. c #F2C738",
"A. c #F4C835",
"S. c #868283",
"D. c #888386",
"F. c #9B9999",
"G. c #A9A5A5",
"H. c #AEAAAB",
"J. c #B0ADAE",
"K. c #B5B4B3",
"L. c #BFBCBE",
"P. c #A2C19C",
"I. c #C0BDBD",
"U. c #C2C3C4",
"Y. c #C0C9C3",
"T. c #C3CDC8",
"R. c #CAC9C7",
"E. c #C8D6CD",
"W. c #D6D6D2",
"Q. c #E0E5DC",
"!. c gray100",
"~. c None",
/* pixels */
"~.~.~.~.~.~.~.~.~.~.~.~.~.~.~.~.~.~.~.~.~.~.~.~.~.~.~.~.~.~.",
"~.~.~.~.~.~.~.~.~.~.~.~.~.~.~.~.~.~.~.~.~.~.~.~.~.~.~.~.~.~.",
"~.~.~.~.~.~.~.~.~.~.~.~.R v x z f b P D.~.~.~.~.~.~.~.~.~.~.",
"~.~.~.~.~.~.~.~.~.~.~.f k n 8 8 9 8 8 N v U ~.~.~.~.~.~.~.~.",
"~.~.~.~.~.~.~.~.~.~ P z 6 d.b.V.b.c.0.y + S ~.~.~.~.~.~.~.~.",
"~.~.~.~.~.~.~.! C L h { h.C.V.V.C.V.V._ = B C ~.~.~.~.~.~.~.",
"~.~.~.~.~.~.~.-.l 6 p.V.A.V.V.V.V.V.V.c.4.= l S K ~.~.~.~.~.",
"~.~.~.~.~.~.~.~ d 5 h.C.V.C.C.V.V.V.A.A.p.* O 1 C ~.~.~.~.~.",
"~.~.~.~.~.~.~.Q 2 : h.C.C.C.C.C.C.C.C.A.p.* O # V ~.~.~.~.~.",
"~.~.~.~.~.~.~.~ 3 : q.m.C.C.C.C.C.C.A.z.3.* 3 C L ~.~.~.~.~.",
"~.~.~.~.~.~.~.F.z : 0.k.M.C.C.C.V.x.z.a.&.% z Q.~.~.~.~.~.~.",
"~.~.~.~.~.~.~.K.L Z / =.i.l.l.l.l.s.9.[ a k L U.~.~.~.~.~.~.",
"~.~.~.~.~.~.~.~.~.>.# / e.i.u.u.u.w.6.] a z F !.~.~.~.~.~.~.",
"~.~.~.~.~.~.~.!.~ Y i $.k.j.k.k.j.j.j.j.q.s H D v ~.~.~.~.~.",
"~.~.~.~.~.~.S D A ` s.M.C.C.C.C.C.C.C.C.V.V.<.q h f ~.~.~.~.",
"~.~.~.~.W z B 9 <.m.x.C.C.C.C.x.x.M.V.V.V.V.V.h.p n U R ~.~.",
"~.~.~.~.W 3 M B.f.a.C.V.C.M.l.a.a.s.V.C.V.V.V.M.b.5.1 V ~.~.",
"~.~.~.~.U 1 9 h.j.i.M.V.M.e.i.M.M.z.i.m.V.C.m.s.x.5.o v ~.~.",
"~.~.~.~.R 1 6 ,.9.a.V.V.V.m.k.a.a.j.M.k.j.V.t.*.0.#.& V ~.~.",
"~.~.~.~.U l B 6 @.i.M.V.V.a.u.r.y.u.j.z.m.s.8.o.0 6 g C ~.~.",
"~.~.~.~.~.~.P R N t 7.s.z.u.y.y.y.y.y.a.s.t.O., g 2 ~.~.~.~.",
"~.~.~.~.~.~.~.R.x % t +.i.y.y.u.y.y.y.e.7.y A z z ~.~.~.~.~.",
"~.~.~.~.~.~.~.I.R c & 0 ] %.&.%.%.+.o.] ^ X D !.~.~.~.~.~.~.",
"~.~.~.~.~.~.~.~.~.>.d = ; > - - > w ( ( ^ X z K.~.~.~.~.~.~.",
"~.~.~.~.~.~.~.~.~.~.~.3 < # # 2 < , :.;.| . 1 S.~.~.~.~.~.~.",
"~.~.~.~.~.~.~.~.~.~.~.~.E.Y.T.H.v M  .} ) = d S.~.~.~.~.~.~.",
"~.~.~.~.~.~.~.~.~.~.~.~.~.~.~.~.W.3 O O & K -.~.~.~.~.~.~.~.",
"~.~.~.~.~.~.~.~.~.~.~.~.~.~.~.~.~.x S v v b ~.~.~.~.~.~.~.~.",
"~.~.~.~.~.~.~.~.~.~.~.~.~.~.~.~.~.~.~.~.~.~.~.~.~.~.~.~.~.~.",
"~.~.~.~.~.~.~.~.~.~.~.~.~.~.~.~.~.~.~.~.~.~.~.~.~.~.~.~.~.~."
};
